tools/download-figma-icons/icons/outlined-large/tree-trunk.svg

<svg width="64" height="64" viewBox="0 0 64 64" fill="none" xmlns="http://www.w3.org/2000/svg">
<path fill-rule="evenodd" clip-rule="evenodd" d="M60.9712 36.5073C60.9712 36.7823 60.7462 37.0083 60.4712 37.0083H45.4634C45.0704 37.0083 44.6924 37.1633 44.4104 37.4403L39.7675 42.0172H28.4556C28.0586 42.0172 27.6766 42.1752 27.3946 42.4572L21.3917 48.4681C20.8057 49.0551 20.8057 50.0061 21.3917 50.5931C21.6857 50.8871 22.0697 51.0331 22.4527 51.0331C22.8367 51.0331 23.2207 50.8871 23.5147 50.5931L29.0766 45.0231H36.7175L21.2367 60.2819C20.2887 61.2299 18.7478 61.2319 17.8008 60.2819L8.81688 51.2851L12.5088 47.5871C13.0948 47.0001 13.0948 46.0501 12.5088 45.4631C11.9228 44.8752 10.9729 44.8752 10.3869 45.4631L6.69491 49.1601L3.71295 46.1751C3.25396 45.7151 3.00096 45.1051 3.00096 44.4552C3.00096 43.8052 3.25396 43.1942 3.71295 42.7352L33.2376 13.1716L34.8275 20.9885L22.3927 33.4413C21.8067 34.0283 21.8067 34.9793 22.3927 35.5663C22.6857 35.8603 23.0697 36.0063 23.4537 36.0063C23.8377 36.0063 24.2217 35.8603 24.5147 35.5663L37.5205 22.5424C37.8775 22.1865 38.0315 21.6735 37.9305 21.1795L35.7825 10.6236L42.6804 3.7157C43.1544 3.24071 43.7754 3.00471 44.3984 3.00471C45.0204 3.00471 45.6414 3.24071 46.1164 3.7157L55.3723 12.9856L45.3794 23.4464C44.8074 24.0464 44.8274 24.9974 45.4264 25.5714C45.7174 25.8504 46.0914 25.9874 46.4644 25.9874C46.8594 25.9874 47.2534 25.8324 47.5484 25.5244L57.4952 15.1115L60.2042 17.8225C60.6832 18.3025 60.9732 18.9515 61.0002 19.6045C61.0272 20.2405 60.8042 20.8295 60.3582 21.2775L52.3923 29.4764C51.9713 29.9094 51.8503 30.5523 52.0853 31.1093C52.3203 31.6643 52.8653 32.0273 53.4673 32.0273H60.4712C60.7462 32.0273 60.9712 32.2513 60.9712 32.5273V36.5073ZM60.4712 29.0214H57.0212L62.4942 23.3864C64.5661 21.3125 64.4901 17.8625 62.3262 15.6975L48.2384 1.59073C46.1214 -0.530243 42.6744 -0.530243 40.5585 1.59073L1.59098 40.6112C0.564992 41.6372 0 43.0032 0 44.4552C0 45.9071 0.564992 47.2741 1.59098 48.3001L5.63092 52.346C5.63192 52.347 5.63192 52.3481 5.63292 52.3481C5.63292 52.3491 5.63393 52.3491 5.63492 52.3501L15.6788 62.4069C16.7388 63.4689 18.1308 63.9989 19.5227 63.9989C20.9087 63.9989 22.2967 63.4709 23.3507 62.4159L41.4434 44.5822L46.0784 40.0132H60.4712C62.4022 40.0132 63.9721 38.4402 63.9721 36.5073V32.5273C63.9721 30.5943 62.4022 29.0214 60.4712 29.0214Z" fill="black"/>
</svg>

<svg width="64" height="64" viewBox="0 0 64 64" fill="none" xmlns="http://www.w3.org/2000/svg"><path fill-rule="evenodd" clip-rule="evenodd" d="M60.971 36.507a.502.502 0 0 1-.5.501H45.463c-.393 0-.77.155-1.053.432l-4.642 4.577H28.456a1.5 1.5 0 0 0-1.061.44l-6.003 6.011a1.504 1.504 0 0 0 1.06 2.565c.385 0 .769-.146 1.063-.44l5.562-5.57h7.64l-15.48 15.259a2.43 2.43 0 0 1-3.436 0l-8.984-8.997 3.692-3.698a1.503 1.503 0 0 0 0-2.124 1.497 1.497 0 0 0-2.122 0L6.695 49.16l-2.982-2.985a2.418 2.418 0 0 1-.712-1.72c0-.65.253-1.26.712-1.72l29.525-29.563 1.59 7.816-12.435 12.453a1.504 1.504 0 0 0 1.06 2.565c.385 0 .769-.146 1.062-.44L37.52 22.542c.357-.356.511-.869.41-1.363l-2.148-10.555 6.898-6.908a2.416 2.416 0 0 1 1.718-.711 2.42 2.42 0 0 1 1.718.71l9.256 9.27-9.993 10.461c-.572.6-.552 1.551.047 2.125.291.28.665.416 1.038.416.395 0 .79-.155 1.084-.463l9.947-10.413 2.71 2.712A2.72 2.72 0 0 1 61 19.605a2.198 2.198 0 0 1-.642 1.672l-7.966 8.2a1.504 1.504 0 0 0 1.075 2.55h7.004a.5.5 0 0 1 .5.5v3.98Zm-.5-7.486h-3.45l5.473-5.635c2.072-2.073 1.996-5.523-.168-7.688L48.238 1.59a5.43 5.43 0 0 0-7.68 0L1.592 40.61A5.401 5.401 0 0 0 0 44.455c0 1.452.565 2.82 1.591 3.845l4.04 4.046c0 .001 0 .002.002.002l.002.002 10.044 10.057a5.413 5.413 0 0 0 3.844 1.592 5.396 5.396 0 0 0 3.828-1.583l18.092-17.834 4.635-4.569h14.393a3.507 3.507 0 0 0 3.501-3.506v-3.98a3.507 3.507 0 0 0-3.5-3.506Z" fill="currentColor"/></svg>
